image/dc.svg

<svg fill="none" height="109" viewBox="0 0 117 109" width="117" xmlns="http://www.w3.org/2000/svg" xmlns:xlink="http://www.w3.org/1999/xlink"><clipPath id="a"><path d="m24 27h72v53h-72z"/></clipPath><g clip-path="url(#a)"><path d="m95.9571 68.3552c.279 1.4894-.9086 2.6083-1.8959 3.7628-2.0676 2.4016-4.7289 3.9837-7.6049 5.2309-2.9619 1.2828-6.0525 2.0809-9.2433 2.5299-.3934.057-.7869.0855-1.1876.0998-.5723.0285-1.0731-.1711-1.4165-.6343-.9229-1.24-1.8243-2.4872-2.7329-3.7343-.2576-.3492.1002-.3349.2647-.3777 1.7456-.4561 3.4412-1.0547 5.101-1.7531 2.0961-.8837 4.0922-1.967 5.9165-3.3281.4579-.3421.8943-.6984.9086-1.3541.0143-.6128-.1574-1.1259-.7226-1.4253-.6153-.3278-1.2091-.2636-1.7528.1568-.8513.6699-1.7599 1.24-2.6971 1.7674-2.4396 1.3612-5.0294 2.3518-7.7266 3.0573-3.1693.8267-6.3815 1.2614-9.6582 1.3754-4.9507.1639-9.7941-.4062-14.5159-1.8885-2.8545-.898-5.5659-2.1095-8.0198-3.8412-.186-.1283-.3649-.2708-.5438-.4134-.7368-.5915-1.6669-.5487-2.2106.0927-.5652.677-.4722 1.5892.2647 2.2163.9301.7911 1.9746 1.4182 3.0405 2.024 2.5469 1.4324 5.2512 2.4729 8.0628 3.2568.093.0285.186.0641.2862.0784.3076.0499.3506.1639.1574.4204-.5866.784-1.1518 1.5821-1.7242 2.3661-.2647.3634-.5508.7197-.8012 1.0974-.4722.7056-1.1304.9265-1.9531.8338-2.4468-.2708-4.8363-.791-7.1757-1.5535-2.9475-.955-5.7305-2.2378-8.1916-4.1406-1.5167-1.1687-2.8116-2.5441-3.8132-4.1832-.2504-.3991-.372-.8267-.372-1.3113.0286-2.6582.2361-5.3021.5795-7.939.5151-4.0265 1.3307-7.9959 2.4038-11.9084 1.1876-4.2973 2.6113-8.5091 4.6073-12.5142.3649-.734.8013-1.4324 1.2234-2.1308.9014-1.4823 2.3466-2.3161 3.7846-3.1428 3.2623-1.8672 6.8108-2.929 10.4809-3.6417 1.0874-.2138 2.182-.3705 3.2766-.4917.7298-.0784 1.3951.2708 1.7027.9336.136.2922.229.6129.3577.905.1503.3421.0287.4775-.3219.5345-1.5525.2495-3.0835.6129-4.6002 1.0476-3.0405.8766-5.9451 2.0739-8.6351 3.7343-.744.4633-.9944 1.347-.5866 2.0596.4006.7198 1.3449.9906 2.1104.5345 1.8458-1.0975 3.7703-2.0097 5.795-2.7366 2.2678-.8053 4.593-1.3683 6.9539-1.7674 2.5469-.4204 5.1224-.6984 7.705-.5915 6.074.2566 11.9261 1.4325 17.349 4.3116.4865.2565.9444.5701 1.438.8195.7154.3635 1.5167.1639 1.9674-.4632.3935-.5416.3291-1.4253-.1502-1.917-.2933-.2993-.6725-.4704-1.0302-.6771-3.3625-1.917-6.9682-3.2069-10.7528-4.0122-.6224-.1354-1.2448-.2637-1.8744-.3706-.2933-.0499-.4007-.1639-.279-.4561.1287-.3135.2289-.6414.3648-.9478.3005-.677.9945-1.0405 1.7314-.9621 2.7543.3136 5.4586.8552 8.0985 1.6961 2.8832.9194 5.6161 2.138 8.0271 3.998.7225.5559 1.209 1.3042 1.6669 2.0738 1.7671 2.9575 2.9904 6.1502 4.0922 9.3928 1.3092 3.8555 2.3323 7.7964 3.0906 11.7944.4436 2.3304.8013 4.675 1.0231 7.041.1645 1.689.2647 3.378.3434 5.352zm-51.5461-12.1721c.0143 2.3945.744 4.0977 2.1105 5.3093 1.9674 1.746 4.7575 1.7246 6.6748-.0571 2.6471-2.4586 2.7544-6.8771.229-9.464-1.9173-1.9669-4.9507-2.0524-6.9682-.1924-1.4094 1.297-1.9889 2.9432-2.039 4.4042zm31.128.4276c0-1.24-.3363-2.4801-.9802-3.5562-1.6884-2.8149-5.1367-3.4635-7.6407-1.4253-3.0834 2.5014-2.9189 7.8392.3005 10.1767 1.9531 1.4182 4.4285 1.2899 6.217-.3278 1.438-1.3042 2.0747-2.9646 2.1034-4.8674z" fill="#ff4d00"/></g></svg>

<svg width="117" height="109" viewBox="0 0 117 109" fill="none" xmlns="http://www.w3.org/2000/svg">
<g clip-path="url(#clip0_209_2275)">
<path d="M95.9571 68.3552C96.2361 69.8446 95.0485 70.9635 94.0612 72.118C91.9936 74.5196 89.3323 76.1017 86.4563 77.3489C83.4944 78.6317 80.4038 79.4298 77.213 79.8788C76.8196 79.9358 76.4261 79.9643 76.0254 79.9786C75.4531 80.0071 74.9523 79.8075 74.6089 79.3443C73.686 78.1043 72.7846 76.8571 71.876 75.61C71.6184 75.2608 71.9762 75.2751 72.1407 75.2323C73.8863 74.7762 75.5819 74.1776 77.2417 73.4792C79.3378 72.5955 81.3339 71.5122 83.1582 70.1511C83.6161 69.809 84.0525 69.4527 84.0668 68.797C84.0811 68.1842 83.9094 67.6711 83.3442 67.3717C82.7289 67.0439 82.1351 67.1081 81.5914 67.5285C80.7401 68.1984 79.8315 68.7685 78.8943 69.2959C76.4547 70.6571 73.8649 71.6477 71.1677 72.3532C67.9984 73.1799 64.7862 73.6146 61.5095 73.7286C56.5588 73.8925 51.7154 73.3224 46.9936 71.8401C44.1391 70.9421 41.4277 69.7306 38.9738 67.9989C38.7878 67.8706 38.6089 67.7281 38.43 67.5855C37.6932 66.994 36.7631 67.0368 36.2194 67.6782C35.6542 68.3552 35.7472 69.2674 36.4841 69.8945C37.4142 70.6856 38.4587 71.3127 39.5246 71.9185C42.0715 73.3509 44.7758 74.3914 47.5874 75.1753C47.6804 75.2038 47.7734 75.2394 47.8736 75.2537C48.1812 75.3036 48.2242 75.4176 48.031 75.6741C47.4444 76.4581 46.8792 77.2562 46.3068 78.0402C46.0421 78.4036 45.756 78.7599 45.5056 79.1376C45.0334 79.8432 44.3752 80.0641 43.5525 79.9714C41.1057 79.7006 38.7162 79.1804 36.3768 78.4179C33.4293 77.4629 30.6463 76.1801 28.1852 74.2773C26.6685 73.1086 25.3736 71.7332 24.372 70.0941C24.1216 69.695 24 69.2674 24 68.7828C24.0286 66.1246 24.2361 63.4807 24.5795 60.8438C25.0946 56.8173 25.9102 52.8479 26.9833 48.9354C28.1709 44.6381 29.5946 40.4263 31.5906 36.4212C31.9555 35.6872 32.3919 34.9888 32.814 34.2904C33.7154 32.8081 35.1606 31.9743 36.5986 31.1476C39.8609 29.2804 43.4094 28.2186 47.0795 27.5059C48.1669 27.2921 49.2615 27.1354 50.3561 27.0142C51.0859 26.9358 51.7512 27.285 52.0588 27.9478C52.1948 28.24 52.2878 28.5607 52.4165 28.8528C52.5668 29.1949 52.4452 29.3303 52.0946 29.3873C50.5421 29.6368 49.0111 30.0002 47.4944 30.4349C44.4539 31.3115 41.5493 32.5088 38.8593 34.1692C38.1153 34.6325 37.8649 35.5162 38.2727 36.2288C38.6733 36.9486 39.6176 37.2194 40.3831 36.7633C42.2289 35.6658 44.1534 34.7536 46.1781 34.0267C48.4459 33.2214 50.7711 32.6584 53.132 32.2593C55.6789 31.8389 58.2544 31.5609 60.837 31.6678C66.911 31.9244 72.7631 33.1003 78.186 35.9794C78.6725 36.2359 79.1304 36.5495 79.624 36.7989C80.3394 37.1624 81.1407 36.9628 81.5914 36.3357C81.9849 35.7941 81.9205 34.9104 81.4412 34.4187C81.1479 34.1194 80.7687 33.9483 80.411 33.7416C77.0485 31.8246 73.4428 30.5347 69.6582 29.7294C69.0358 29.594 68.4134 29.4657 67.7838 29.3588C67.4905 29.3089 67.3831 29.1949 67.5048 28.9027C67.6335 28.5892 67.7337 28.2613 67.8696 27.9549C68.1701 27.2779 68.8641 26.9144 69.601 26.9928C72.3553 27.3064 75.0596 27.848 77.6995 28.6889C80.5827 29.6083 83.3156 30.8269 85.7266 32.6869C86.4491 33.2428 86.9356 33.9911 87.3935 34.7607C89.1606 37.7182 90.3839 40.9109 91.4857 44.1535C92.7949 48.009 93.818 51.9499 94.5763 55.9479C95.0199 58.2783 95.3776 60.6229 95.5994 62.9889C95.7639 64.6779 95.8641 66.3669 95.9428 68.3409L95.9571 68.3552ZM44.411 56.1831C44.4253 58.5776 45.155 60.2808 46.5215 61.4924C48.4889 63.2384 51.279 63.217 53.1963 61.4353C55.8434 58.9767 55.9507 54.5582 53.4253 51.9713C51.508 50.0044 48.4746 49.9189 46.4571 51.7789C45.0477 53.0759 44.4682 54.7221 44.4181 56.1831H44.411ZM75.539 56.6107C75.539 55.3707 75.2027 54.1306 74.5588 53.0545C72.8704 50.2396 69.4221 49.591 66.9181 51.6292C63.8347 54.1306 63.9992 59.4684 67.2186 61.8059C69.1717 63.2241 71.6471 63.0958 73.4356 61.4781C74.8736 60.1739 75.5103 58.5135 75.539 56.6107Z" fill="#FF4D00"/>
</g>
<defs>
<clipPath id="clip0_209_2275">
<rect width="72" height="53" fill="white" transform="translate(24 27)"/>
</clipPath>
</defs>
</svg>
